www.hlidacshopu.cz/src/icons/notino_logo.svg

<svg width="68" height="13" viewBox="0 0 68 13" fill="none" xmlns="http://www.w3.org/2000/svg">
  <title>Notino</title>
  <path
    d="M35.0463 3.25048H31.6861V11.9994H29.1822V3.25048H25.8149V1.13817H35.0463V3.25048ZM40.3059 1.13817H37.802V11.9994H40.3059V1.13817ZM67.8706 6.56879C67.8797 7.3278 67.7362 8.08101 67.4483 8.78434C67.1604 9.48767 66.7341 10.127 66.1941 10.6649C65.095 11.7 63.6372 12.277 62.1216 12.277C60.606 12.277 59.1483 11.7 58.0492 10.6649C57.5043 10.1299 57.0737 9.4914 56.7832 8.78762C56.4927 8.08384 56.3482 7.3292 56.3583 6.56879C56.3428 5.81018 56.482 5.05628 56.7676 4.35238C57.0532 3.64848 57.4794 3.0091 58.0204 2.47264C59.1195 1.4376 60.5772 0.860535 62.0928 0.860535C63.6085 0.860535 65.0662 1.4376 66.1653 2.47264C66.7131 3.00624 67.1466 3.64414 67.4396 4.34804C67.7326 5.05193 67.8792 5.8073 67.8706 6.56879ZM58.8622 6.56879C58.8449 7.49039 59.1878 8.38289 59.8192 9.05931C60.1154 9.36605 60.4711 9.61016 60.8649 9.77693C61.2588 9.94369 61.6826 10.0297 62.1108 10.0297C62.5391 10.0297 62.9629 9.94369 63.3567 9.77693C63.7506 9.61016 64.1063 9.36605 64.4025 9.05931C65.0312 8.38178 65.3715 7.48941 65.3522 6.56879C65.3753 5.64327 65.0347 4.7451 64.4025 4.064C64.1063 3.75725 63.7506 3.51314 63.3567 3.34638C62.9629 3.17961 62.5391 3.09364 62.1108 3.09364C61.6826 3.09364 61.2588 3.17961 60.8649 3.34638C60.4711 3.51314 60.1154 3.75725 59.8192 4.064C59.1843 4.74399 58.8411 5.64228 58.8622 6.56879ZM24.5773 6.56879C24.5865 7.3278 24.4429 8.08101 24.1551 8.78434C23.8672 9.48767 23.4408 10.127 22.9009 10.6649C21.8018 11.7 20.344 12.277 18.8284 12.277C17.3128 12.277 15.855 11.7 14.756 10.6649C14.2111 10.1299 13.7805 9.4914 13.49 8.78762C13.1995 8.08384 13.055 7.3292 13.0651 6.56879C13.0533 5.80815 13.1971 5.05303 13.4877 4.34901C13.7783 3.645 14.2097 3.0067 14.756 2.47264C15.855 1.4376 17.3128 0.860535 18.8284 0.860535C20.344 0.860535 21.8018 1.4376 22.9009 2.47264C23.4435 3.00864 23.8716 3.64762 24.1597 4.3514C24.4477 5.05518 24.5898 5.80933 24.5773 6.56879ZM15.569 6.56879C15.5517 7.49039 15.8946 8.38289 16.526 9.05931C16.8222 9.36605 17.1779 9.61016 17.5717 9.77693C17.9656 9.94369 18.3894 10.0297 18.8176 10.0297C19.2459 10.0297 19.6697 9.94369 20.0635 9.77693C20.4573 9.61016 20.8131 9.36605 21.1093 9.05931C21.7328 8.37957 22.0679 7.48745 22.0446 6.56879C22.0716 5.64524 21.7363 4.74733 21.1093 4.064C20.8131 3.75725 20.4573 3.51314 20.0635 3.34638C19.6697 3.17961 19.2459 3.09364 18.8176 3.09364C18.3894 3.09364 17.9656 3.17961 17.5717 3.34638C17.1779 3.51314 16.8222 3.75725 16.526 4.064C15.8911 4.74399 15.5479 5.64228 15.569 6.56879ZM7.97093 1.13817V7.91752L6.63983 6.09067L4.56763 3.2362L4.12153 2.62963C3.98453 2.4462 3.83803 2.26994 3.68262 2.10156C3.35549 1.7474 2.95884 1.46327 2.51701 1.26663C1.86526 0.995073 1.14013 0.94981 0.459198 1.13817L0.459198 11.9994H2.96311V5.22006L4.29421 7.04691L6.36642 9.90137L6.81251 10.5079C6.94769 10.6905 7.09428 10.8645 7.25142 11.0289C7.57759 11.3859 7.97436 11.6726 8.41703 11.871C9.06904 12.1414 9.79379 12.1866 10.4748 11.9994V1.13817H7.97093ZM51.2641 1.13817V7.91752L49.933 6.09067L47.8608 3.2362L47.4147 2.62963C47.2777 2.4462 47.1312 2.26994 46.9758 2.10156C46.6424 1.74501 46.2382 1.46074 45.7886 1.26663C45.1454 1.00159 44.4316 0.956402 43.7596 1.13817V11.9994H46.2563V5.22006L47.5874 7.04691L49.6596 9.90137L50.1057 10.5079C50.2409 10.6905 50.3875 10.8645 50.5446 11.0289C50.8708 11.3859 51.2676 11.6726 51.7102 11.871C52.3623 12.1414 53.087 12.1866 53.7681 11.9994V1.13817H51.2641Z"
    fill="#1D3650"/>
</svg>

<svg width="68" height="13" fill="none" xmlns="http://www.w3.org/2000/svg">
  <path
    d="M35.046 3.25h-3.36V12h-2.504V3.25h-3.367V1.138h9.231V3.25zm5.26-2.112h-2.504V12h2.504V1.14zm27.565 5.43a5.668 5.668 0 01-.423 2.216 5.705 5.705 0 01-1.254 1.88 5.94 5.94 0 01-4.072 1.613 5.94 5.94 0 01-4.073-1.612 5.655 5.655 0 01-1.266-1.877 5.62 5.62 0 01-.425-2.22 5.59 5.59 0 01.41-2.216 5.627 5.627 0 011.252-1.88A5.94 5.94 0 0162.093.862a5.94 5.94 0 014.072 1.612 5.65 5.65 0 011.275 1.875c.293.704.44 1.46.43 2.22zm-9.009 0a3.552 3.552 0 00.957 2.491 3.174 3.174 0 002.292.97 3.195 3.195 0 002.292-.97c.628-.677.968-1.57.95-2.49a3.551 3.551 0 00-.95-2.505 3.173 3.173 0 00-2.292-.97 3.196 3.196 0 00-2.292.97 3.551 3.551 0 00-.957 2.505zm-34.285 0a5.668 5.668 0 01-.422 2.216 5.707 5.707 0 01-1.254 1.88 5.94 5.94 0 01-4.073 1.613 5.94 5.94 0 01-4.072-1.612 5.655 5.655 0 01-1.266-1.877 5.62 5.62 0 01-.425-2.22 5.59 5.59 0 01.423-2.219 5.627 5.627 0 011.268-1.876A5.94 5.94 0 0118.828.86a5.94 5.94 0 014.073 1.612A5.65 5.65 0 0124.16 4.35a5.61 5.61 0 01.417 2.218zm-9.008 0a3.552 3.552 0 00.957 2.491 3.174 3.174 0 002.292.97 3.195 3.195 0 002.291-.97 3.55 3.55 0 00.936-2.49 3.55 3.55 0 00-.936-2.505 3.174 3.174 0 00-2.291-.97 3.196 3.196 0 00-2.292.97 3.551 3.551 0 00-.957 2.505zm-7.598-5.43v6.78L6.64 6.09 4.568 3.236l-.446-.606a6.614 6.614 0 00-.44-.528 3.553 3.553 0 00-1.165-.835 3.161 3.161 0 00-2.058-.129V12h2.504V5.22l1.331 1.827L6.366 9.9l.447.607c.135.183.281.357.438.52a3.54 3.54 0 001.166.843c.652.27 1.377.316 2.058.128V1.14H7.97zm43.293 0v6.78L49.933 6.09l-2.072-2.855-.446-.606a6.616 6.616 0 00-.44-.528 3.553 3.553 0 00-1.186-.835 3.161 3.161 0 00-2.03-.129V12h2.497V5.22l1.331 1.827L49.66 9.9l.446.607c.135.183.282.357.439.52a3.54 3.54 0 001.165.843c.652.27 1.377.316 2.058.128V1.14h-2.504z"
    fill="#1D3650"/>
</svg>
